teeny/solid/rewind-small.svg

<svg width="15" height="15" viewBox="0 0 15 15" fill="none" xmlns="http://www.w3.org/2000/svg">
<path d="M7 5.5C7 5.32176 6.90512 5.15701 6.75096 5.06754C6.59681 4.97808 6.40668 4.97745 6.25193 5.06588L2.75193 7.06588C2.59614 7.1549 2.5 7.32057 2.5 7.5C2.5 7.67943 2.59614 7.8451 2.75193 7.93412L6.25193 9.93412C6.40668 10.0226 6.59681 10.0219 6.75096 9.93246C6.90512 9.84299 7 9.67824 7 9.5V8.07588L10.2519 9.93412C10.4067 10.0226 10.5968 10.0219 10.751 9.93246C10.9051 9.84299 11 9.67824 11 9.5V5.5C11 5.32176 10.9051 5.15701 10.751 5.06754C10.5968 4.97808 10.4067 4.97745 10.2519 5.06588L7 6.92412V5.5Z" fill="black"/>
</svg>

<svg viewBox="0 0 15 15" xmlns="http://www.w3.org/2000/svg"><path d="M7 5.5c0-.18-.1-.35-.25-.44 -.16-.09-.35-.1-.5-.01l-3.5 2c-.16.08-.26.25-.26.43 0 .17.09.34.25.43l3.5 2c.15.08.34.08.49-.01 .15-.09.24-.26.24-.44V8.03l3.25 1.85c.15.08.34.08.49-.01 .15-.09.24-.26.24-.44v-4c0-.18-.1-.35-.25-.44 -.16-.09-.35-.1-.5-.01L6.94 6.83V5.4Z"/></svg>
